X:774
T:Kentucky Mandolin
C:Bill Monroe
S:Photocopy from a book - possibly Butch Baldissari?
Z:Nigel Gatherer
M:4/4
L:1/8
K:Gm
DGBd gfdc | B4 D4 | ^F4 G4 | [G6d6] D2 ||
FGGG G2 Bc | c2 cd cB G2 | FGGG G2 GA |
BABc d2 D2 | FGGG G2 Bc | c2 cd cB G2 | 
^cddd d2 ^cd | B G2 [GG,] [G2G,2] [G2G,2] :|
fggg g2 fg | g2 gb gf d2 | =effg fd c2 |
agfa gf d2 | fggg g2 fg | g2 gb gf d2 | 
=effg fdBA | cBAF G4 :|]
<end>
<start>
